X: 30493
M: 2/4
L: 1/16
K: G
dBGB dBge | dBGB dBgd bgdB | dcBc A2Bc |\
dBGB dBge | dBGB dBge | dBge dBcA | G2[g2G2]"^FINE"[g2G2] :|
|: (fg) |\
afdf afbg | a(fdf) afbg | fad'^c' bagf | agfg e2fg |\
afdf afbg | afdf afd'c' | afge fde^c | d^dec BA"^D.C."Bc :|


